X:542
T:Battle of the Somme
M:9/8
L:1/8
K:G
d>c |BdB G3 GFG|AGE E3 D3|EGE D3 G3|BdB A3-A d>c|BdB G3 GFG|
AGE E3 D3|EGE D3 B3|ABA G3-G2::G|GFG A3 D3|AGA BdB G3|GAB c3 D3|
BdB A3- A d>c|BdB G3 GFG|AGE E3 D3|EGE D3 B3|ABA G3-G2:|]
